X: 4386
M: 3/4
L: 1/4
K: D
{ga}gfe | {de}dcA |
d3- | dz :|\
|: d/c/ |\
{cd}cBB | Bzc/B/ | {Bc}BAA | AzB/A/ |\
{AB}AGG | GzA/G/ | {GA}GFF | Fzd/c/ |\
{cd}cBB | Bzc/B/ | {Bc}BAA | Azb/a/ |
gfa | gfe | d3- | "_D.C."dz :|\
[K:A] |:\
{^B}czf | e3 | {^B}czf | e3 |\
agf |[1,3 (f2e) | fe^d | e3 :|\
[2,4 egb | a3- | azz |:\
c3 | c3 | c3- | cBA |
[1 (B2c) | (A2c) | B3- | B(ed) :|\
[2 (B2d) | (G2B) | A3- | Azz |]


